X:1
T:The Well-Tempered Clavier Book II - XXIV
T:BWV 893    (A = 415 Hz)
T:J. S. Bach
%%score { ( 1 3 ) | ( 2 4 ) }
L:1/8
Q:1/4=132
M:2/2
K:D
V:1 treble nm="Harp"
V:3 treble 
V:2 bass 
V:4 bass 
V:1
"^Allegro""^Praeludium""^Praeludium" DFB,C DFB,D | CF G/F/^E/F/ ^AFc=E | DFB,C DFB,D | %3
 CFC^A, F, z z2 | z2 d2 B2 F2 | z2 e2 c2 F2 | z2 f2- fe/d/ e/d/c/B/ | %7
 B2- B/4^A/4B/4A/4B/4A/4B/4A/4 z E/D/ C/D/E | DB/c/ d/c/B- B f2 A- | AB/A/ ^G/A/B- B D2 B | %10
 CA/B/ c/B/A- A e2 =G- | GA/G/ F/G/A- A C2 A | B, F2 A- AG/F/ G/F/E/D/ | C G2 B- BA/G/ A/G/F/E/ | %14
 D A2 =c- cB/A/ B/A/G/F/ | E B2 d- dc/B/ c/B/A/G/ | FADE FADF | EA B/A/^G/A/ cAe=G | FADE FADF | %19
 EAEC A, z z2 | z2 A2 B/A/^G/A/ f2 | z2 A2 B/A/^G/A/ g2 | z2 A2 B/A/^G/A/ad | %23
 d2- d/4c/4d/4c/4d/4c/4d/4c/4 d/4c/4B/c/^d/ e/d/c/d/ | egB^d egBe | e2 ^df B2 Af | f/e/^deA A2 Ge | %27
 e^d a2- a/g/f/e/ d/c/B/A/ | GBEF GBEG | FB =c/B/^A/B/ ^dBf=A | GBEF GBEG | %31
 FBF^D B,2 e/4^d/4c/4d/4-d | e2 B2 g/f/e/f/gB | B/4A/4B/4A/4^GAc ceac | d2 A2 f/e/d/e/fA | %35
 A/4G/4A/4G/4FGB BdgB | c g2 f ^A e2 d | ^E2 F2 ^G2 A2 | B2 c2 d ^E2 F | ^G B,2 D2 C2 B, | %40
 A,CF,^G, A,CF,A, | ^G,C D/C/^B,/C/ ^EC^G=B, | A,2 C2 F2 A2 | ^E2 ^G2 B2 d2 | %44
 cF/^G/ A/G/F- F c2 E- | EF/E/ D/E/F- F A,2 F | G,E/F/ G/F/E- E B2 D- | DE/D/ C/D/E- E G,2 E | %48
 F, C2 E- ED/C/ D/C/B,/^A,/ | B, F2 A- AG/F/ G/F/E/D/ | E B2 d- dc/B/ c/B/^A/^G/ | %51
 ^A e2 g- gf/e/ f/e/d/c/ | d ^A2 B c>^d e/d/c/d/ | e ^A2 B d A2 B | g/f/ e2 e- e/f/e/^d/ee- | %55
 e/A/G/F/G e2 G2 G- | %56
[Q:1/4=72]"^Adagio" GF/d/{!fermata!d} !fermata!c2[Q:1/4=132]"^Allegro" z E/F/ G/F/E | DF^AB dcBA | %58
 B2 F2 G/F/^E/F/ d2 | z2 F2 G/F/^E/F/ e2 | z2 F2 G/F/^E/F/fA | A2 ^G2 z G/^A/ B/c/d/e/ | %62
 B2 ^A2 z A/B/ c/B/A | ^e2 f2 z4 | z B/A/ G/F/E z B2 ^A | !fermata!B8 | %66
[M:3/8][Q:1/4=100]"^Fuga" z2 z | z3 | z3 | z3 | z3 | z3 | z z B | AF^E | F^G/A/B/c/ | dDd | cCc | %77
 Bc/B/A/^G/ | A/c/B/A/^G/F/ | GA/G/F/E/ | F/A/G/F/E/D/ | EF/E/D/C/ | D F2- | F3- | FEA- | AFD- | %86
 DCF- | F/^G/A/4G/4A/4G/4A/4G/4F/4G/4 | A/c/B/A/^G/F/ | ^G/^A/B/4A/4B/4A/4B/4A/4G/4A/4 | %90
 B/d/c/B/A/^G/ | A/B/c/4B/4c/4B/4c/4B/4A/4B/4 | c3- | c/d/c/B/A/^G/ | AF^E | F2 B- | B^EF | D C2- | %98
 C2 F | DEF- | FED | C z a | fdc | de/f/g/a/ | bBb | aAa | ga/g/f/e/ | f/a/g/f/e/d/ | cde- | edc | %110
 BAB | ced | c3- | c/c/D/c/D/B/ | C/B/C/B/C/A/ | B,/A/^G/B/E/G/ | AEF | G^G^A | BF^G | A^A^B | %120
 c3- | cA^G | F z z | z/ a/B/a/B/^g/ | A/^g/A/g/A/f/ | ^G/f/^e/^g/c/e/ | fcf- | f/e/^d/c/B- | %128
 BBe- | e/d/c/B/A- | AAd- | d-d/d/c/B/ | ^ABc | d2- d- | d/c/d/e/f/g/ | ^A2 z | z3 | z3 | z3 | %139
 z/ g/A/g/A/f/ | G/f/G/f/G/e/ | F/e/^d/f/B/d/ | e/^d/e/g/b/=d/ | c/B/c/e/A/c/ | d/c/d/f/a/c/ | %145
 B/A/B/d/c/B/ | ^A/B/c/d/e- | ecf | dB^A | Bc/d/e/f/ | gGg | fFf | ef/e/d/c/ | def- | fed | cde- | %156
 edc | B2 c | dAB | =c^c^d | eBc | d^d^e | f2 z | z3 | z z z/ f/ | e/d/c/B/c/^A/ | %166
{!fermata!^A} !fermata!B2 z |] %167
V:2
 B,,2 D,2 F,2- F,/G,/F,/^E,/ | F,2 ^A,,2 C,2 F,2 | B,,2 D,2 F,2- F,/G,/F,/^E,/ | %3
 F,2 F,,2 z E,D,C, | D,F,B,,C, D,F,B,,D, | C,F, G,/F,/^E,/F,/ ^A,F,C=E, | D,F,B,,C, D,F,B,,D, | %7
 C,F,C,^A,, F,,2 ^A,2 | B,,2 B,2 C2 ^D2 | E2 E,2 F,2 ^G,2 | A,,2 A,2 B,2 C2 | D2 D,2 E,2 F,2 | %12
 G,,2 B,,2 D,2 E,2 | A,,2 C,2 E,2 F,2 | B,,2 D,2 F,2 G,2 | C,2 E,2 G,2 A,2 | %16
 D,2 F,2 A,2- A,/B,/A,/^G,/ | A,2 C,2 E,2 A,2 | D,2 F,2 A,2- A,/B,/A,/^G,/ | A,2 A,,2 z G,F,E, | %20
 F,A,D,E, F,A,D,F, | E,A, B,/A,/^G,/A,/ CA,E=G, | F,A,D,E, F,A,D,F, | E,A,E,C, A,,A,G,F, | %24
 G,B,E,F, G,B,E,G, | F,B, =C/B,/^A,/B,/ ^DB,F=A, | G,B,E,F, G,B,E,G, | F,B,F,^D, B,,2 z2 | %28
 z2 G,2 E,2 B,,2 | z2 A,2 F,2 B,,2 | z2 B,/4A,/4B,3/2- B,A,/G,/ A,/G,/F,/E,/ | %31
 E,2- E,/4^D,/4E,/4D,/4E,/4D,/4E,/4D,/4 z A,/G,/ F,/G,/A, | G,[I:staff -1]E/F/ G/F/E- E B2 =D- | %33
 DE/D/ C/D/E- E[I:staff +1] G,2[I:staff -1] E |[I:staff +1] F,[I:staff -1]D/E/ F/E/D- D A2 =C- | %35
 CD/=C/ B,/C/D- D[I:staff +1] F,2 D | E,2 D,2 C,2 B,,2- | B,, D2 C ^E, B,2 A, | %38
 D, ^G,2 F, B,,2 B,2 | ^E,2 ^G,2 C,2 E,2 | F,,2 A,,2 C,2- C,/D,/C,/^B,,/ | C,2 ^E,,2 ^G,,2 C,2 | %42
 F,,C,F,^G, A,CF,A, | ^G,C D/C/^B,/C/ ^EC^G=B, | A,2 F,2 ^G,2 ^A,2 | B,2 B,,2 C,2 ^D,2 | %46
 E,,2 E,2 F,2 G,2 | A,2 A,,2 B,,2 C,2 | D,,2 F,,2 A,,2 D,2 | G,,2 B,,2 D,2 G,2 | C,2 E,2 G,2 C2 | %51
 F,2 ^A,2 C2 F2 | B,2 G2 A,GFA, | G,2 E2 F,EDF, | E,D=CE, D,CB,D, | C,B,^A,C, B,,A,B,B,, | %56
 !fermata!^A,,4 z2 ^A,2 | B,2 G,2 E,2 F,2 | D,F,B,,C, D,F,B,,D, | C,F, G,/F,/^E,/F,/ ^A,F,C=E, | %60
 D,F,B,,C, D,F,B,,C, | D,2 D,,2 z2 D,2 | C,2 C2 z C/D/ E/D/C | ^G2 C2 z F,/^G,/ ^A,/B,/C | %64
 D,2 E,2 F,2 F,,2 | !fermata!B,,8 |[M:3/8] z2 z | z3 | z3 | z3 | z3 | z3 | z3 | z3 | A,F,^E, | %75
 F,/^G,/A,/4G,/4A,/4G,/4A,/4G,/4F,/4G,/4 | A,/B,/A,/^G,/F,/E,/ | %77
 ^D,/^E,/F,/4E,/4F,/4E,/4F,/4E,/4D,/4E,/4 | F,^G,A, | B,/C/D/4C/4D/4C/4D/4C/4B,/4C/4 | DA,B,- | %81
 B,^A,/^G,/A, | D,B,,^A,, | B,,C,/D,/E,/F,/ | G,G,,G, | F,F,,F, | E,F,/E,/D,/C,/ | %87
 D,/F,/E,/D,/C,/B,,/ | C,/^D,/E,/4D,/4E,/4D,/4E,/4D,/4C,/4D,/4 | E,/G,/F,/E,/D,/C,/ | %90
 ^D,/^E,/F,/4E,/4F,/4E,/4F,/4E,/4D,/4E,/4 | F,/A,/^G,/F,/^E,/^D,/ | ^E,/^G,/F,/E,/^D,/C,/ | %93
 F,A,,C, | F,, z z | z/ A,/B,,/A,/B,,/^G,/ | A,,/^G,/A,,/G,/A,,/F,/ | ^G,,/F,/^E,/^G,/C,/E,/ | %98
 F,,/F,/^G,,/F,/A,,/F,/ | B,,/F,/C,/F,/D,/F,/ | E,,/E,/F,,/E,/G,,/E,/ | A,,/E,/B,,/E,/C,/E,/ | %102
 D,/E,/F,/G,/A,/G,/ | F,/A,/G,/F,/E,/D,/ | G, z E, | F, z D, | E, A,2 | D, z B, | F z C | D z ^D | %110
 E z E, | C,A,,^G,, | A,,B,,/C,/D,/E,/ | F,F,,F, | E,E,,E, | D,E,/D,/C,/B,,/ | %116
 C,/E,/A,/E,/^D,/A,/ | E,/G,/F,/E,/D,/C,/ | ^D,/F,/B,/F,/^E,/B,/ | F,/A,/^G,/F,/^E,/^D,/ | %120
 C,/D,/C,/B,,/A,,/^G,,/ | F,,/F,/^G,/A,/B,/C/ | D/E/D/C/B,/^A,/ | B, z E, | A, z D- | D C2- | %126
 C/B,/A,/^G,/F,/E,/ | ^D, B,2- | B,/A,/G,/F,/E,/D,/ | C, A,2- | A,/G,/F,/E,/D,/C,/ | B,, G,2- | %132
 G, F,2- | F,/E,/D,/C,/B,,/A,,/ | G,, G,2 | F,2 z | z/ B,,/C,/D,/E,/F,/ | G,E,^D, | %138
 E,F,/G,/A,/B,/ | =C=C,C | B,B,,B, | A,B,/A,/G,/F,/ | G,G,,G,- | G,A,/G,/F,/E,/ | F,F,,F,- | %145
 F,E,D, | C,/D,/E,/F,/G,/B,,/ | ^A,,/G,/F,/E,/D,/C,/ | B,,/C,/D,/E,/F,/E,/ | D,/F,/E,/D,/C,/B,,/ | %150
 E, z A, | D, z G, | C,/B,/^A,/C/F,/A,/ | B,,/B,/C,/B,/D,/B,/ | E,/B,/F,/B,/G,/B,/ | %155
 A,,/A,/B,,/A,/C,/A,/ | D,/A,/E,/A,/F,/A,/ | G,/B,/A,/G,/F,/E,/ | F,/A,/D/A,/^G,/D/ | %159
 A,/=C/B,/A,/G,/F,/ | ^G,/B,/E/B,/^A,/E/ | B,/D/C/B,/^A,/^G,/ | F,/G,/F,/E,/D,/C,/ | %163
 B,,/C,/D,/E,/F,/E,/ | D,B,,^A,, | B,,D,,F,, | !fermata!B,,,2 z |] %167
V:3
 x8 | x8 | x8 | x8 | x8 | x8 | x8 | x8 | x8 | x8 | x8 | x8 | x8 | x8 | x8 | x8 | x8 | x8 | x8 | %19
 x8 | x8 | x8 | x8 | x8 | x8 | x8 | x8 | x8 | x8 | x8 | x8 | x8 | x8 | x8 | x8 | x8 | x8 | x8 | %38
 x8 | x8 | x8 | x8 | x8 | x8 | x8 | x8 | x8 | x8 | x8 | x8 | x8 | x8 | x8 | x8 | x8 | z4 z E2 E- | %56
 E4 z4 | x8 | x8 | x8 | x8 | [G,E]4 z4 | [E=G]4 z4 | [Bd]2 [Fc]2 z4 | z4 D2 [CE]2 | [B,DF]8 | %66
[M:3/8] x2 F | DB,^A, | B,C/D/E/F/ | GG,G | FF,F | EF/E/D/C/ | D/F/E/D/C/B,/ | C/B,/C/D/C/B,/ | %74
 x3 | x3 | x3 | x3 | x3 | x3 | x3 | x3 | x3 | x3 | B,/C/D/4C/4D/4C/4D/4C/4B,/4C/4 | %85
 D/E/D/C/B,/A,/ | ^G,/^A,/B,/4A,/4B,/4A,/4B,/4A,/4G,/4A,/4 | B, z z | x3 | x3 | x3 | x3 | z z C | %93
[I:staff +1] A,F,^E, | F,^G,/A,/B,/C/ |[I:staff -1] D[I:staff +1]D,[I:staff -1]D | %96
 C[I:staff +1]C,[I:staff -1]C | B,C/B,/A,/^G,/ | A,B,C- | CB,A, | G,A,B, | B,A, z | x3 | x3 | %104
 z/[I:staff +1] F/G,/F/G,/E/ | F,/E/F,/E/F,/D/ | E,/D/C/E/A,/C/ | D/C/D/E/F/^G/ | %108
 A/[I:staff -1]^G/A/B/A/G/ | F/E/F/^G/A/F/ | ^G/E/F/E/G/E/ | A/E/B/E/B/E/ |{B} A>^GF/E/ | DA^G | %114
 z ^GF | z ED- | DC=C- | CB,E- | E^D=D- | DCF | F^Ec | AF^E | F^G/^A/B/c/ | %123
 d[I:staff +1]D[I:staff -1]d | c[I:staff +1]C[I:staff -1]c | Bc/B/A/^G/ | A3- | A2- A/A/ | %128
 G/F/EG- | G2- G/G/ | F/E/DF- | F/F/ E2- | E/E/[I:staff +1]D/C/B,/^A,/ | B,[I:staff -1]FB- | %134
 B[I:staff +1]B,E- | E/[I:staff -1]G/F/E/D/C/ | DB,^A, | B,C/^D/E/F/ | GE^D | %139
[I:staff +1] E[I:staff -1] z[I:staff +1] E | ^D[I:staff -1] z[I:staff +1] E |[I:staff -1] F3 | %142
[I:staff +1] B,[I:staff -1] z[I:staff +1] E |[I:staff -1] A z z | %144
[I:staff +1] A,[I:staff -1] z[I:staff +1] D |[I:staff -1] G3- | G z z/ G/ | F ^A2 | B z z | x3 | %150
 z/ d/[I:staff +1]E/[I:staff -1]d/[I:staff +1]E/[I:staff -1]c/ | %151
[I:staff +1] D/[I:staff -1]c/[I:staff +1]D/[I:staff -1]c/[I:staff +1]D/[I:staff -1]B/ | C c2- | %153
 cBA | GAB- | BAG | FGA- | ADG- | GF=F- | FEA- | A^G=G- | GFB- | B^AF | DB,^A, | B,/B/^A/B/c | %165
 z FE |{E} ^D2 z |] %167
V:4
 x8 | x8 | x8 | x8 | x8 | x8 | x8 | x8 | x8 | x8 | x8 | x8 | x8 | x8 | x8 | x8 | x8 | x8 | x8 | %19
 x8 | x8 | x8 | x8 | x8 | x8 | x8 | x8 | x8 | x8 | x8 | x8 | x8 | x8 | x8 | x8 | x8 | x8 | x8 | %38
 x8 | x8 | x8 | x8 | x8 | x8 | x8 | x8 | x8 | x8 | x8 | x8 | x8 | x8 | x8 | x8 | x8 | x8 | x8 | %57
 x8 | x8 | x8 | x8 | x8 | x8 | B,2 ^A,2 z4 | x8 | x8 |[M:3/8] x3 | x3 | x3 | x3 | x3 | x3 | x3 | %73
 x3 | x3 | x3 | x3 | x3 | x3 | x3 | x3 | z z F, | x3 | x3 | x3 | x3 | x3 | x3 | x3 | x3 | x3 | x3 | %92
 x3 | x3 | x3 | x3 | x3 | x3 | x3 | x3 | x3 | x3 | x3 | x3 | x3 | x3 | x3 | x3 | x3 | x3 | x3 | %111
 x3 | x3 | x3 | x3 | x3 | x3 | x3 | x3 | x3 | x3 | x3 | x3 | x3 | x3 | x3 | x3 | x3 | x3 | x3 | %130
 x3 | x3 | x3 | x3 | x3 | x3 | x3 | x3 | x3 | x3 | x3 | x3 | x3 | x3 | x3 | x3 | x3 | x3 | x3 | %149
 x3 | x3 | x3 | x3 | x3 | x3 | x3 | x3 | x3 | x3 | x3 | x3 | x3 | x3 | x3 | x3 | x3 | x3 |] %167

